X: 3563
T: Big Sciote
R: reel
M: 4/4
K: Gmajor
DE|:"G"G2B2 "D"AGED|"G"G3 GG2 DE|"G"G2B2 "D"AGED|"G"G3 GG2 DE|
G2A2B2d2|"C"e2e e2e|"D"d2B2 AGE2|1 ."G"G4 G2DE:|2 ."G"G4 G2Bd||
|:"G" ggg gef g2|"D"a2ab age2|a2ab age2|"Em"e3e e2d2|
e3d BAB2|"C"e3d e2d2|"D"d2B2 AGE2|1 ."G"G4 G2Bd:|2 ."G"(G4 G4)||

